X:1
T:Title
%%score { 1 | ( 2 3 ) }
L:1/8
M:6/8
K:G
V:1 treble nm="Grand Piano"
V:2 treble 
V:3 treble 
V:1
 z3 z2[Q:1/4=84] G | B_B=B dGc | B2 A G2 G | FA[Fd] [FA]2 [Ac] |[M:5/8] B-B- B3 |[M:1/8] G | %6
[M:3/4] B_B =Bd BG | [EA]2 [EG] E2 E | DG [GB] [GB]2 A |[M:5/8] G-G- G3 |[M:1/8] B/c/ | %11
[M:3/4] de d B2 A | G3 D2 D | G2 G B2 [DG] |[M:5/8] [FA]-[FA]- [FA]3 |[M:1/8] B/c/ | %16
[M:3/4] de d B2 G | [EG]3 E2 E | DG [GB] [FB]2 [CFA] |[M:5/8] [B,G]-[B,G]- [B,G]3 |] %20
V:2
 z3 z2 [G,B,D] | [G,DG][G,^CG][G,DG] [G,B,G][G,B,][G,EG] | %2
 [G,DG]2[K:bass] [G,CD] [G,B,D]2 [G,B,D] | [D,A,C][D,F,D][D,A,] [D,D]2 [D,D] | %4
[M:5/8][K:treble] [G,DG]-[G,DG]- [G,DG]3 |[M:1/8] [G,B,D] | %6
[M:3/4] [G,DG][G,^CG] [G,DG][G,B,G] [G,DG][K:bass][G,B,D] | [C,C]2 [C,G,] [C,G,C]2 [C,G,C] | %8
 [D,G,B,][D,B,D] [D,D] [D,D]2 [D,CD] |[M:5/8] [G,B,D]-[G,B,D]- [G,B,D]3 |[M:1/8] [G,D] | %11
[M:3/4][K:treble] [G,B,G][G,CG] [G,B,G] [G,DG]2 [G,CD] | [G,B,D]3 [G,B,]2 [G,B,] | %13
 [G,B,D]2 [G,B,D] [G,DG]2 B,, |[M:5/8] [D,D]-[D,D]- [D,D]3 |[M:1/8][K:treble] [G,G] | %16
[M:3/4] [G,B,G][G,CG] [G,B,G] [G,DG]2[K:bass] [G,B,D] | [C,C]3 [C,G,C]2 [C,G,C] | %18
 [D,G,B,][D,B,D] [D,D] [D,D]2 D, |[M:5/8] G,,-G,,- G,,3 |] %20
V:3
 x6 | x6 | x2[K:bass] x4 | x6 |[M:5/8][K:treble] x5 |[M:1/8] x |[M:3/4] x5[K:bass] x | x6 | x6 | %9
[M:5/8] x5 |[M:1/8] z/ A,/ |[M:3/4][K:treble] x6 | x6 | x6 |[M:5/8] x5 |[M:1/8][K:treble] z/ A,/ | %16
[M:3/4] x5[K:bass] x | x6 | x6 |[M:5/8] x5 |] %20

